X:303
T:Fields of Athenry, The
C:Joe Buchanan's Scottish Tome - Page 640.0
I:640 0
Z:Carl Allison
R:Jig
L:1/4
M:4/4
K:F
CC | "F"C>C F G | (A3 A/)A/ | "Bb"B>B B c | "F"((A2 A/)B/A/F/) |
"C7"G3 z | z4 | "F"c>c c>A | "Bb"B>c B A |
"C7"G4- | G2 z A/B/ | "F"c>c c>A | "Bb"B3 c/B/ |
"F"A>G F/G/ A | "C7"G3 C/C/ | G>G A B | A>G F E |
"F"F4- | F2 z2 |] x4 | x4 |
"F"c4 | "Bb"d3 c | "F"(F2 F/)C/F/G/ | "Dm"A3 G |
"F"F>C F G | A2 B c | "C"G4- | G2 z (A/B/) |
"F"c>c c A | "Bb"B3 c/B/ | "F"A>G (F/G/) A | "C7"G3 C/C/ |
G>G A B | A>G F E | "F"F4- | F2 z |

